X:9008
T:La Panadera
R:Xiraldilla
C:Tradicional
S:Música Tradicional Asturiana, (C) Tello & Tito. Asturies, 2001.
S:http://pagina.de/MusTradAst <telloytito@asturies.org>
A:Asturies
Z:Les cuarenta principales
M:3/4
L:1/4
Q:3/4=40
K:Cm
|G2 G|GAG|F=EG|F=EF|G3-|G3|
|G2 G|GAG|F=EG|FED|C3|
|E2 G|FED|C3|E2 F|GAG|F=EG|FED|C3-|C3|


